X: 65
T: Jing jiu ge
L: 1/16
M: 2/4
K: F
c c2 d G G2 A [I:setbarnb 1]| 
c c2 f d c G A | 
c2> d2c4 | 
d d2 g G G2 A | 
c d g2 d c A2 | 
A G2 AG4 | 
c2 A G F2 F D | 
F2> f2 d c2 A | 
A G2 A G2 C2 | 
c2 A G F G c2 | 
A G G F D F A2 | 
C8 |]

@@@ Tune index: 8733
